icons/4_Outdated/GoDaddy v1 bg.var.svg

<svg width="1024" height="1024" viewBox="0 0 1024 1024" fill="none" xmlns="http://www.w3.org/2000/svg">
<g clip-path="url(#clip0_3_560)">
<path d="M512 1024C794.77 1024 1024 794.77 1024 512C1024 229.23 794.77 0 512 0C229.23 0 0 229.23 0 512C0 794.77 229.23 1024 512 1024Z" fill="#71A372"/>
<path d="M351.6 510.901C351.6 502.101 344.7 494.801 335.7 494.801C326.9 494.801 319.8 502.101 319.8 510.901C319.8 519.701 326.7 526.801 335.7 526.801C344.7 526.901 351.6 519.801 351.6 510.901ZM379.2 511.101C379.2 533.901 359.8 552.101 335.9 552.101C311.8 552.101 292.6 533.901 292.6 511.101C292.6 488.101 312 469.701 335.9 469.701C359.9 469.601 379.2 488.101 379.2 511.101ZM465.6 494.501C465.6 479.201 454.9 465.801 439 465.801H417V523.901H439C454.9 523.801 465.6 509.801 465.6 494.501ZM495.3 494.501C495.3 527.301 472.1 549.701 439.5 549.701H392.4C390.1 549.701 388.4 548.001 388.4 545.901V443.501C388.4 441.401 390.1 439.701 392.4 439.701H439.5C472.3 439.901 495.3 461.701 495.3 494.501ZM541.5 526.901C550.3 526.901 557.4 519.601 557.4 510.801C557.4 502.001 550.5 494.701 541.5 494.701C532.7 494.701 525.6 502.001 525.6 510.801C525.6 519.801 532.7 526.901 541.5 526.901ZM537.3 469.601C546.7 469.601 554.2 473.001 557.4 477.801V475.501C557.4 473.401 559.1 471.901 561 471.901H581C583.1 471.901 584.6 473.401 584.6 475.501V546.001C584.6 548.101 583.1 549.601 581 549.601H561.3C559.2 549.601 557.7 548.101 557.7 546.001V543.701C554.4 548.501 546.8 551.901 537.4 551.901C517.5 551.901 498.3 536.001 498.3 510.501C498.2 485.101 517.4 469.601 537.3 469.601ZM631.6 526.901C640.4 526.901 647.5 519.601 647.5 510.801C647.5 502.001 640.6 494.701 631.6 494.701C622.8 494.701 615.7 502.001 615.7 510.801C615.7 519.801 622.8 526.901 631.6 526.901ZM626.8 469.601C636.4 469.601 643.9 473.201 647.3 477.501V443.601C647.3 441.501 649 440.001 650.9 440.001H671C673.1 440.001 674.6 441.501 674.6 443.601V546.301C674.6 548.401 673.1 549.901 671 549.901H651.3C649.2 549.901 647.7 548.401 647.7 546.301V544.001C643.7 548.801 636.8 552.201 627.4 552.201C607.5 552.201 588.3 536.301 588.3 510.801C588.3 485.301 607.2 469.601 626.8 469.601ZM721.6 526.901C730.4 526.901 737.5 519.601 737.5 510.801C737.5 502.001 730.6 494.701 721.6 494.701C712.8 494.701 705.7 502.001 705.7 510.801C705.9 519.801 712.8 526.901 721.6 526.901ZM717 469.601C726.6 469.601 734.1 473.201 737.5 477.501V443.601C737.5 441.501 739.2 440.001 741.1 440.001H761C763.1 440.001 764.6 441.501 764.6 443.601V546.301C764.6 548.401 763.1 549.901 761 549.901H741.3C739.2 549.901 737.7 548.401 737.7 546.301V544.001C733.7 548.801 726.8 552.201 717.4 552.201C697.5 552.201 678.3 536.301 678.3 510.801C678.3 485.301 697.3 469.601 717 469.601ZM831 561.001C826 577.501 814.5 586.701 796.5 586.701C786.7 586.701 777.1 583.401 771 578.101C770 577.101 769.5 576.001 769.5 574.801C769.5 573.801 769.9 572.701 770.8 571.501L778.3 560.201C779.4 558.701 781.2 558.501 781.6 558.501C783.3 558.501 784.1 558.901 785.6 560.001C787.9 561.501 791.2 563.401 794.8 563.401C797.9 563.401 801.9 562.101 803.4 557.501L805.9 549.601H793.6C791.1 549.601 789.6 547.901 788.8 545.801L768.7 478.201C768.3 476.501 768.1 475.501 768.1 474.901C768.1 473.401 769.2 472.001 771.4 472.001H795.2C797.3 472.001 798.5 473.901 799 475.801L812.2 524.501H813.2L823.7 475.801C824.1 473.901 825.4 472.001 827.5 472.001H851.6C853.9 472.001 854.9 473.301 854.9 474.901C854.9 475.501 854.7 476.401 854.3 478.201L831 561.001ZM264.2 534.501C254.6 547.701 238.9 552.101 224.9 552.101C192.7 552.101 168.9 528.101 168.9 494.801C169.1 462.801 194.8 437.301 228.3 437.301C253.2 437.301 273.1 447.801 282.1 468.001C283.2 470.301 284 474.101 277.3 475.301L259.7 478.401C255.7 479.201 253.4 476.501 252.6 475.301C247.4 468.201 239 463.401 228.8 463.401C211.2 463.401 198.7 476.801 198.7 494.601C198.7 514.301 212.9 525.801 228.4 525.801C238.7 525.801 247.2 522.001 252.7 514.701H237.2C234.9 514.701 233.2 513.001 233.2 510.901V496.101C233.2 494.001 234.9 492.301 237.2 492.301H284.5C286.8 492.301 288.5 494.001 288.5 496.101V545.701C288.5 547.801 286.8 549.501 284.5 549.501H268C265.7 549.501 264 547.801 264 545.701L264.2 534.501Z" fill="white"/>
</g>
<defs>
<clipPath id="clip0_3_560">
<rect width="1024" height="1024" fill="white"/>
</clipPath>
</defs>
</svg>

<svg xmlns="http://www.w3.org/2000/svg" width="1024" height="1024" fill="none">
   <g clip-path="url(#a)">
      <path fill="#71A372" d="M512 1024c282.77 0 512-229.23 512-512S794.77 0 512 0 0 229.23 0 512s229.23 512 512 512Z"/>
      <path fill="#fff" d="M351.6 510.901c0-8.8-6.9-16.1-15.9-16.1-8.8 0-15.9 7.3-15.9 16.1s6.9 15.9 15.9 15.9c9 .1 15.9-7 15.9-15.9Zm27.6.2c0 22.8-19.4 41-43.3 41-24.1 0-43.3-18.2-43.3-41 0-23 19.4-41.4 43.3-41.4 24-.1 43.3 18.4 43.3 41.4Zm86.4-16.6c0-15.3-10.7-28.7-26.6-28.7h-22v58.1h22c15.9-.1 26.6-14.1 26.6-29.4Zm29.7 0c0 32.8-23.2 55.2-55.8 55.2h-47.1c-2.3 0-4-1.7-4-3.8v-102.4c0-2.1 1.7-3.8 4-3.8h47.1c32.8.2 55.8 22 55.8 54.8Zm46.2 32.4c8.8 0 15.9-7.3 15.9-16.1s-6.9-16.1-15.9-16.1c-8.8 0-15.9 7.3-15.9 16.1 0 9 7.1 16.1 15.9 16.1Zm-4.2-57.3c9.4 0 16.9 3.4 20.1 8.2v-2.3c0-2.1 1.7-3.6 3.6-3.6h20c2.1 0 3.6 1.5 3.6 3.6v70.5c0 2.1-1.5 3.6-3.6 3.6h-19.7c-2.1 0-3.6-1.5-3.6-3.6v-2.3c-3.3 4.8-10.9 8.2-20.3 8.2-19.9 0-39.1-15.9-39.1-41.4-.1-25.4 19.1-40.9 39-40.9Zm94.3 57.3c8.8 0 15.9-7.3 15.9-16.1s-6.9-16.1-15.9-16.1c-8.8 0-15.9 7.3-15.9 16.1 0 9 7.1 16.1 15.9 16.1Zm-4.8-57.3c9.6 0 17.1 3.6 20.5 7.9v-33.9c0-2.1 1.7-3.6 3.6-3.6H671c2.1 0 3.6 1.5 3.6 3.6v102.7c0 2.1-1.5 3.6-3.6 3.6h-19.7c-2.1 0-3.6-1.5-3.6-3.6v-2.3c-4 4.8-10.9 8.2-20.3 8.2-19.9 0-39.1-15.9-39.1-41.4s18.9-41.2 38.5-41.2Zm94.8 57.3c8.8 0 15.9-7.3 15.9-16.1s-6.9-16.1-15.9-16.1c-8.8 0-15.9 7.3-15.9 16.1.2 9 7.1 16.1 15.9 16.1Zm-4.6-57.3c9.6 0 17.1 3.6 20.5 7.9v-33.9c0-2.1 1.7-3.6 3.6-3.6H761c2.1 0 3.6 1.5 3.6 3.6v102.7c0 2.1-1.5 3.6-3.6 3.6h-19.7c-2.1 0-3.6-1.5-3.6-3.6v-2.3c-4 4.8-10.9 8.2-20.3 8.2-19.9 0-39.1-15.9-39.1-41.4s19-41.2 38.7-41.2Zm114 91.4c-5 16.5-16.5 25.7-34.5 25.7-9.8 0-19.4-3.3-25.5-8.6-1-1-1.5-2.1-1.5-3.3 0-1 .4-2.1 1.3-3.3l7.5-11.3c1.1-1.5 2.9-1.7 3.3-1.7 1.7 0 2.5.4 4 1.5 2.3 1.5 5.6 3.4 9.2 3.4 3.1 0 7.1-1.3 8.6-5.9l2.5-7.9h-12.3c-2.5 0-4-1.7-4.8-3.8l-20.1-67.6c-.4-1.7-.6-2.7-.6-3.3 0-1.5 1.1-2.9 3.3-2.9h23.8c2.1 0 3.3 1.9 3.8 3.8l13.2 48.7h1l10.5-48.7c.4-1.9 1.7-3.8 3.8-3.8h24.1c2.3 0 3.3 1.3 3.3 2.9 0 .6-.2 1.5-.6 3.3l-23.3 82.8Zm-566.8-26.5c-9.6 13.2-25.3 17.6-39.3 17.6-32.2 0-56-24-56-57.3.2-32 25.9-57.5 59.4-57.5 24.9 0 44.8 10.5 53.8 30.7 1.1 2.3 1.9 6.1-4.8 7.3l-17.6 3.1c-4 .8-6.3-1.9-7.1-3.1-5.2-7.1-13.6-11.9-23.8-11.9-17.6 0-30.1 13.4-30.1 31.2 0 19.7 14.2 31.2 29.7 31.2 10.3 0 18.8-3.8 24.3-11.1h-15.5c-2.3 0-4-1.7-4-3.8v-14.8c0-2.1 1.7-3.8 4-3.8h47.3c2.3 0 4 1.7 4 3.8v49.6c0 2.1-1.7 3.8-4 3.8H268c-2.3 0-4-1.7-4-3.8l.2-11.2Z"/>
   </g>
   <defs>
      <clipPath id="a">
         <path fill="#fff" d="M0 0h1024v1024H0z"/>
      </clipPath>
   </defs>
</svg>
